src/22/panel/wechat-tray-unread.svg

<svg xmlns="http://www.w3.org/2000/svg" width="22" height="22" version="1.1">
 <defs>
  <style id="current-color-scheme" type="text/css">
   .ColorScheme-Text { color:#bebebe; } .ColorScheme-Highlight { color:#5294e2; }
  </style>
 </defs>
 <path style="fill:currentColor" class="ColorScheme-Text" d="M 10 3 A 7 6.5 0 0 0 3 9.5 A 7 6.5 0 0 0 5 14.046875 L 5 17 L 6.3203125 15.019531 A 7 6.5 0 0 0 8.5820312 15.853516 C 8.2131044 15.143061 8 14.348082 8 13.5 C 8 11.060117 9.7230409 9.0453833 12.048828 8.3066406 A 1 1 0 0 1 12 8 A 1 1 0 0 1 13 7 A 1 1 0 0 1 14 8 C 15.061383 8 16.066598 8.2619524 16.943359 8.7167969 A 7 6.5 0 0 0 10 3 z M 7 7 A 1 1 0 0 1 8 8 A 1 1 0 0 1 7 9 A 1 1 0 0 1 6 8 A 1 1 0 0 1 7 7 z M 14 9 A 5 4.5 0 0 0 9 13.5 A 5 4.5 0 0 0 14 18 A 5 4.5 0 0 0 15.009766 17.904297 C 15.06218 16.303725 16.387708 15 18 15 C 18.231334 15 18.454974 15.0314 18.671875 15.082031 A 5 4.5 0 0 0 19 13.5 A 5 4.5 0 0 0 14 9 z M 12 11 A 1 1 0 0 1 13 12 A 1 1 0 0 1 12 13 A 1 1 0 0 1 11 12 A 1 1 0 0 1 12 11 z M 16 11 A 1 1 0 0 1 17 12 A 1 1 0 0 1 16 13 A 1 1 0 0 1 15 12 A 1 1 0 0 1 16 11 z M 18 17 C 17.574081 17 17.221528 17.248751 17.074219 17.613281 L 18 19 L 18 17 z"/>
 <circle style="fill:currentColor" class="ColorScheme-Highlight" cx="18" cy="18" r="2"/>
</svg>

<svg xmlns="http://www.w3.org/2000/svg" width="22" height="22"><path d="M10 3a7 6.5 0 0 0-7 6.5 7 6.5 0 0 0 2 4.547V17l1.32-1.98a7 6.5 0 0 0 2.262.834A5.081 5.081 0 0 1 8 13.5c0-2.44 1.723-4.455 4.049-5.193A1 1 0 0 1 12 8a1 1 0 0 1 1-1 1 1 0 0 1 1 1c1.061 0 2.067.262 2.943.717A7 6.5 0 0 0 10 3zM7 7a1 1 0 0 1 1 1 1 1 0 0 1-1 1 1 1 0 0 1-1-1 1 1 0 0 1 1-1zm7 2a5 4.5 0 0 0-5 4.5 5 4.5 0 0 0 5 4.5 5 4.5 0 0 0 1.01-.096C15.062 16.304 16.388 15 18 15c.231 0 .455.031.672.082A5 4.5 0 0 0 19 13.5 5 4.5 0 0 0 14 9zm-2 2a1 1 0 0 1 1 1 1 1 0 0 1-1 1 1 1 0 0 1-1-1 1 1 0 0 1 1-1zm4 0a1 1 0 0 1 1 1 1 1 0 0 1-1 1 1 1 0 0 1-1-1 1 1 0 0 1 1-1zm2 6a.983.983 0 0 0-.926.613L18 19v-2z" fill="currentColor" color="#bebebe"/><circle cx="18" cy="18" r="2" fill="currentColor" color="#5294e2"/></svg>
